X: 34632
T: Road To Ballygirreen, The
R: reel
M: 4/4
K: Gmajor
DG ~G2 DGBd|g2 dg eA~A2|DGGF ~G2GB|egdc ~B2AF|
DGGF DG (3Bcd|g2 dg eA~A2|G2 (3Bcd gedB|cedc BG ~G2||
g2 bg agbg|gedg eA~A2|~g2gb ~a2 a2|egdc BGBd|
g2 bg agbg|gedg eA~A2|G2 (3Bcd gedB|cedc BG ~G2:|

